packages/ui-icons/svg/Line/subtitles.svg

<svg viewBox="0 0 1920 1920" xmlns="http://www.w3.org/2000/svg">
    <g fill-rule="evenodd" clip-rule="evenodd">
        <path d="M320 1221.33c0-32.4 26.266-58.66 58.667-58.66h736.003c32.4 0 58.66 26.26 58.66 58.66 0 32.4-26.26 58.67-58.66 58.67H378.667c-32.401 0-58.667-26.27-58.667-58.67zm1066.67 0c0-32.4 26.26-58.66 58.66-58.66h96c32.4 0 58.67 26.26 58.67 58.66 0 32.4-26.27 58.67-58.67 58.67h-96c-32.4 0-58.66-26.27-58.66-58.67zm-581.337 261.34c-32.4 0-58.666 26.26-58.666 58.66 0 32.4 26.266 58.67 58.666 58.67h735.997c32.4 0 58.67-26.27 58.67-58.67 0-32.4-26.27-58.66-58.67-58.66H805.333zM320 1541.33c0-32.4 26.266-58.66 58.667-58.66h96c32.4 0 58.666 26.26 58.666 58.66 0 32.4-26.266 58.67-58.666 58.67h-96c-32.401 0-58.667-26.27-58.667-58.67z"/>
        <path d="M0 213.333C0 95.513 95.513 0 213.333 0H1706.67C1824.49 0 1920 95.513 1920 213.333V1706.67c0 117.82-95.51 213.33-213.33 213.33H213.333C95.513 1920 0 1824.49 0 1706.67V213.333Zm213.333-96H1706.67c53.02 0 96 42.981 96 96V1706.67c0 53.02-42.98 96-96 96H213.333c-53.019 0-96-42.98-96-96V213.333c0-53.019 42.981-96 96-96Z"/>
    </g>
</svg>

<svg viewBox="0 0 1920 1920" xmlns="http://www.w3.org/2000/svg">
    <g fill-rule="evenodd" clip-rule="evenodd" stroke="none" stroke-width="1">
        <path d="M320 1221.33C320 1188.93 346.266 1162.67 378.667 1162.67H1114.67C1147.07 1162.67 1173.33 1188.93 1173.33 1221.33 1173.33 1253.73 1147.07 1280 1114.67 1280H378.667C346.266 1280 320 1253.73 320 1221.33zM1386.67 1221.33C1386.67 1188.93 1412.93 1162.67 1445.33 1162.67H1541.33C1573.73 1162.67 1600 1188.93 1600 1221.33 1600 1253.73 1573.73 1280 1541.33 1280H1445.33C1412.93 1280 1386.67 1253.73 1386.67 1221.33zM805.333 1482.67C772.933 1482.67 746.667 1508.93 746.667 1541.33 746.667 1573.73 772.933 1600 805.333 1600H1541.33C1573.73 1600 1600 1573.73 1600 1541.33 1600 1508.93 1573.73 1482.67 1541.33 1482.67H805.333zM320 1541.33C320 1508.93 346.266 1482.67 378.667 1482.67H474.667C507.067 1482.67 533.333 1508.93 533.333 1541.33 533.333 1573.73 507.067 1600 474.667 1600H378.667C346.266 1600 320 1573.73 320 1541.33z"/>
        <path fill-rule="evenodd" clip-rule="evenodd" d="M0 213.333C0 95.5126 95.5126 0 213.333 0H1706.67C1824.49 0 1920 95.5126 1920 213.333V1706.67C1920 1824.49 1824.49 1920 1706.67 1920H213.333C95.5126 1920 0 1824.49 0 1706.67V213.333ZM213.333 117.333H1706.67C1759.69 117.333 1802.67 160.314 1802.67 213.333V1706.67C1802.67 1759.69 1759.69 1802.67 1706.67 1802.67H213.333C160.314 1802.67 117.333 1759.69 117.333 1706.67V213.333C117.333 160.314 160.314 117.333 213.333 117.333Z"/>
    </g>
</svg>
